svg/bag_personal.svg

<svg xmlns="http://www.w3.org/2000/svg" viewBox="0 0 24 24"><path d="M16 5V4a2 2 0 0 0-2-2h-4a2 2 0 0 0-2 2v1a4 4 0 0 0-4 4v11a2 2 0 0 0 2 2h12a2 2 0 0 0 2-2V9a4 4 0 0 0-4-4m-6-1h4v1h-4zm2 5 2 2-2 2-2-2zm6 7H9v2H8v-2H6v-1h12z"/></svg>

<?xml version="1.0" encoding="UTF-8"?><!DOCTYPE svg PUBLIC "-//W3C//DTD SVG 1.1//EN" "http://www.w3.org/Graphics/SVG/1.1/DTD/svg11.dtd"><svg xmlns="http://www.w3.org/2000/svg" xmlns:xlink="http://www.w3.org/1999/xlink" version="1.1" id="mdi-bag-personal" width="24" height="24" viewBox="0 0 24 24"><path d="M16,5V4A2,2 0 0,0 14,2H10A2,2 0 0,0 8,4V5A4,4 0 0,0 4,9V20A2,2 0 0,0 6,22H18A2,2 0 0,0 20,20V9A4,4 0 0,0 16,5M10,4H14V5H10V4M12,9L14,11L12,13L10,11L12,9M18,16H9V18H8V16H6V15H18V16Z" /></svg>
